icons/branch.svg

<svg xmlns="http://www.w3.org/2000/svg" viewBox="0 0 24 24" fill="currentColor">
  <path d="M4 3.75c.41421 0 .75.33579.75.75v3.55005h2.53694C7.50285 6.74843 8.63895 5.75 10 5.75h8c1.5142 0 2.75 1.23579 2.75 2.75v1c0 1.5142-1.2358 2.75-2.75 2.75h-8c-1.4975 0-2.72268-1.2087-2.74955-2.69995H4.75V15c0 .6858.56421 1.25 1.25 1.25h1.26131c.12707-1.3979 1.30873-2.5 2.73869-2.5h8c1.5142 0 2.75 1.2358 2.75 2.75v1c0 1.5142-1.2358 2.75-2.75 2.75h-8c-1.42996 0-2.61162-1.1021-2.73869-2.5H6c-1.51421 0-2.75-1.2358-2.75-2.75V4.5c0-.41421.33579-.75.75-.75Zm4.75 5.05005V9.5c0 .6858.56421 1.25 1.25 1.25h8c.6858 0 1.25-.5642 1.25-1.25v-1c0-.68579-.5642-1.25-1.25-1.25h-8c-.68579 0-1.25.56421-1.25 1.25v.30005Zm0 8.69995v-1c0-.6858.56421-1.25 1.25-1.25h8c.6858 0 1.25.5642 1.25 1.25v1c0 .6858-.5642 1.25-1.25 1.25h-8c-.68579 0-1.25-.5642-1.25-1.25Z"/>
</svg>

<svg width="24" height="24" viewBox="0 0 24 24" fill="none" xmlns="http://www.w3.org/2000/svg">
<path fill-rule="evenodd" clip-rule="evenodd" d="M4 3.75C4.41421 3.75 4.75 4.08579 4.75 4.5V8.05005H7.28694C7.50285 6.74843 8.63895 5.75 10 5.75H18C19.5142 5.75 20.75 6.98579 20.75 8.5V9.5C20.75 11.0142 19.5142 12.25 18 12.25H10C8.5025 12.25 7.27732 11.0413 7.25045 9.55005H4.75V15C4.75 15.6858 5.31421 16.25 6 16.25H7.26131C7.38838 14.8521 8.57004 13.75 10 13.75H18C19.5142 13.75 20.75 14.9858 20.75 16.5V17.5C20.75 19.0142 19.5142 20.25 18 20.25H10C8.57004 20.25 7.38838 19.1479 7.26131 17.75H6C4.48579 17.75 3.25 16.5142 3.25 15V8.80005V4.5C3.25 4.08579 3.58579 3.75 4 3.75ZM8.75 8.80005V9.5C8.75 10.1858 9.31421 10.75 10 10.75H18C18.6858 10.75 19.25 10.1858 19.25 9.5V8.5C19.25 7.81421 18.6858 7.25 18 7.25H10C9.31421 7.25 8.75 7.81421 8.75 8.5V8.80005ZM8.75 17.5V17V16.5C8.75 15.8142 9.31421 15.25 10 15.25H18C18.6858 15.25 19.25 15.8142 19.25 16.5V17.5C19.25 18.1858 18.6858 18.75 18 18.75H10C9.31421 18.75 8.75 18.1858 8.75 17.5Z" fill="black"/>
</svg>
